lib/brands/icons/kubernetes.svg

<svg xmlns="http://www.w3.org/2000/svg" fill="none" aria-hidden="true" viewBox="0 0 48 48"><g id="kubernetes-Icon"><g id="Group"><path id="path3055" fill="#326CE5" d="M23.8891 8.47805C23.6062 8.4923 23.329 8.56244 23.0738 8.68435L11.949 13.9999C11.6611 14.1374 11.4081 14.3375 11.2088 14.5853C11.0096 14.8331 10.8691 15.1222 10.798 15.4312L8.05345 27.3712C7.99007 27.6463 7.98298 27.9313 8.03259 28.2091C8.0822 28.487 8.1875 28.7522 8.34227 28.989C8.3798 29.0468 8.42016 29.1029 8.46321 29.1568L16.1633 38.7308C16.3626 38.9785 16.6157 39.1785 16.9036 39.316C17.1916 39.4534 17.507 39.5248 17.8266 39.5247L30.1749 39.5218C30.4944 39.5221 30.8098 39.451 31.0977 39.3138C31.3856 39.1766 31.6387 38.9768 31.8382 38.7294L39.5355 29.154C39.7349 28.9061 39.8754 28.6169 39.9466 28.3078C40.0178 27.9986 40.0178 27.6775 39.9466 27.3684L37.1978 15.4284C37.1267 15.1194 36.9863 14.8302 36.787 14.5824C36.5877 14.3346 36.3347 14.1345 36.0468 13.997L24.9206 8.68435C24.5996 8.53099 24.2449 8.46006 23.8891 8.47805V8.47805Z"/><path id="path3059" fill="white" d="M23.9995 12.5414C23.6318 12.5414 23.3336 12.8726 23.3336 13.2812C23.3336 13.2875 23.3349 13.2935 23.3351 13.2997C23.3345 13.3552 23.3318 13.4221 23.3336 13.4705C23.3424 13.7061 23.3938 13.8865 23.4247 14.1036C23.4807 14.5683 23.5277 14.9535 23.4987 15.3115C23.4705 15.4466 23.3711 15.57 23.2824 15.6559L23.2668 15.9376C22.8672 15.9707 22.4649 16.0313 22.0631 16.1225C20.3341 16.5151 18.8455 17.4057 17.7122 18.6081C17.6387 18.558 17.51 18.4657 17.4718 18.4374C17.3529 18.4535 17.2327 18.4901 17.0762 18.399C16.7782 18.1984 16.5068 17.9215 16.1784 17.588C16.028 17.4285 15.919 17.2765 15.7402 17.1228C15.6996 17.0878 15.6377 17.0406 15.5923 17.0047C15.4525 16.8932 15.2876 16.8351 15.1284 16.8297C14.9237 16.8227 14.7267 16.9027 14.5977 17.0644C14.3685 17.352 14.4419 17.7914 14.7614 18.0461C14.7646 18.0487 14.768 18.0507 14.7713 18.0533C14.8152 18.0888 14.869 18.1344 14.9093 18.1642C15.099 18.3043 15.2723 18.376 15.4614 18.4872C15.8596 18.7332 16.1898 18.9371 16.4516 19.183C16.5539 19.292 16.5718 19.484 16.5854 19.5671L16.7988 19.7578C15.6563 21.4771 15.1275 23.6009 15.44 25.7648L15.1612 25.8459C15.0877 25.9408 14.9838 26.0901 14.8752 26.1347C14.5326 26.2426 14.147 26.2822 13.6815 26.331C13.4629 26.3492 13.2743 26.3384 13.0426 26.3823C12.9916 26.3919 12.9206 26.4104 12.8648 26.4235C12.8628 26.4239 12.861 26.4245 12.8591 26.4249C12.856 26.4256 12.852 26.4271 12.8491 26.4278C12.4567 26.5226 12.2045 26.8833 12.2857 27.2388C12.3669 27.5943 12.7502 27.8105 13.1451 27.7254C13.1479 27.7247 13.1521 27.7246 13.155 27.7239C13.1595 27.7229 13.1634 27.7208 13.1678 27.7197C13.2229 27.7076 13.2918 27.6942 13.34 27.6813C13.5678 27.6203 13.7328 27.5307 13.9376 27.4522C14.3781 27.2942 14.743 27.1622 15.0986 27.1107C15.247 27.0991 15.4035 27.2023 15.4813 27.2459L15.7715 27.1961C16.4395 29.2669 17.8392 30.9406 19.6116 31.9909L19.4907 32.2811C19.5343 32.3938 19.5824 32.5463 19.5499 32.6576C19.4207 32.9928 19.1993 33.3465 18.9472 33.7409C18.8251 33.9231 18.7002 34.0645 18.5901 34.273C18.5637 34.3229 18.5301 34.3996 18.5047 34.4523C18.3336 34.8185 18.4591 35.2402 18.7878 35.3985C19.1186 35.5577 19.5293 35.3898 19.707 35.0228C19.7072 35.0223 19.7081 35.0219 19.7084 35.0214C19.7086 35.021 19.7082 35.0204 19.7084 35.02C19.7337 34.968 19.7696 34.8996 19.7909 34.8507C19.8852 34.6346 19.9166 34.4494 19.983 34.2403C20.1592 33.7978 20.256 33.3334 20.4985 33.0441C20.5649 32.9648 20.6732 32.9344 20.7854 32.9043L20.9362 32.6311C22.4814 33.2242 24.211 33.3834 25.9388 32.9911C26.3329 32.9016 26.7134 32.7858 27.0813 32.6468C27.1237 32.722 27.2024 32.8665 27.2235 32.9029C27.3376 32.94 27.4621 32.9592 27.5636 33.1092C27.745 33.4192 27.8691 33.786 28.0203 34.2289C28.0867 34.438 28.1195 34.6232 28.2138 34.8393C28.2353 34.8886 28.271 34.9579 28.2963 35.01C28.4737 35.3781 28.8856 35.5467 29.2169 35.3871C29.5456 35.2287 29.6712 34.807 29.5 34.4409C29.4746 34.3882 29.4396 34.3116 29.4132 34.2617C29.3031 34.0531 29.1782 33.9132 29.0561 33.731C28.804 33.3366 28.5949 33.009 28.4656 32.6738C28.4116 32.501 28.4748 32.3935 28.5169 32.2811C28.4916 32.2522 28.4377 32.089 28.4059 32.0122C30.2479 30.9246 31.6065 29.1885 32.2446 27.1833C32.3307 27.1968 32.4805 27.2233 32.5291 27.2331C32.6293 27.167 32.7213 27.0809 32.9019 27.0951C33.2574 27.1465 33.6223 27.2786 34.0629 27.4365C34.2677 27.515 34.4327 27.6061 34.6605 27.667C34.7086 27.6799 34.7776 27.692 34.8326 27.704C34.837 27.7051 34.841 27.7073 34.8454 27.7083C34.8484 27.709 34.8525 27.7091 34.8554 27.7097C35.2502 27.7947 35.6336 27.5787 35.7147 27.2231C35.7958 26.8677 35.5438 26.5069 35.1513 26.4121C35.0942 26.3992 35.0133 26.3771 34.9578 26.3666C34.7261 26.3227 34.5375 26.3336 34.319 26.3154C33.8535 26.2666 33.4679 26.2269 33.1253 26.119C32.9856 26.0649 32.8862 25.8986 32.8379 25.8302L32.569 25.752C32.7084 24.7433 32.6708 23.6935 32.4295 22.6432C32.186 21.583 31.7557 20.6134 31.1817 19.7592C31.2507 19.6965 31.381 19.5811 31.4179 19.5472C31.4287 19.4277 31.4194 19.3024 31.5431 19.1701C31.805 18.9243 32.1352 18.7204 32.5334 18.4744C32.7224 18.3632 32.8971 18.2915 33.0868 18.1514C33.1297 18.1198 33.1883 18.0696 33.2334 18.0333C33.5528 17.7785 33.6263 17.3391 33.397 17.0516C33.1677 16.7641 32.7233 16.7371 32.4039 16.9919C32.3584 17.0279 32.2968 17.0748 32.2559 17.11C32.0772 17.2637 31.9668 17.4157 31.8163 17.5752C31.4879 17.9087 31.2165 18.187 30.9185 18.3876C30.7894 18.4628 30.6003 18.4368 30.5144 18.4317L30.2612 18.6124C28.8171 17.0981 26.8508 16.1299 24.7337 15.9418C24.7277 15.8531 24.72 15.6927 24.718 15.6445C24.6313 15.5615 24.5266 15.4907 24.5003 15.3115C24.4714 14.9535 24.5197 14.5683 24.5757 14.1036C24.6067 13.8865 24.658 13.7061 24.6668 13.4705C24.6688 13.4169 24.6656 13.3392 24.6654 13.2812C24.6653 12.8726 24.3673 12.5413 23.9995 12.5414ZM23.1658 17.7061L22.968 21.199L22.9538 21.2062C22.9405 21.5186 22.6833 21.7682 22.3676 21.7682C22.2382 21.7682 22.1189 21.7266 22.0218 21.6558L22.0161 21.6586L19.1521 19.6283C20.0323 18.7627 21.1582 18.1231 22.4558 17.8285C22.6928 17.7746 22.9297 17.7347 23.1658 17.7061ZM24.8347 17.7061C26.3496 17.8924 27.7506 18.5784 28.8242 19.6297L25.9786 21.6472L25.9687 21.643C25.7161 21.8274 25.3602 21.7817 25.1634 21.5348C25.0827 21.4337 25.0404 21.3148 25.0353 21.1948L25.0325 21.1934L24.8347 17.7061ZM18.1134 20.933L20.7285 23.272L20.7257 23.2863C20.9617 23.4915 20.9965 23.8476 20.7997 24.0944C20.719 24.1955 20.6111 24.2634 20.4952 24.295L20.4923 24.3064L17.1403 25.2739C16.9696 23.7138 17.3373 22.1973 18.1134 20.933ZM29.8671 20.9344C30.2556 21.5642 30.5499 22.2676 30.725 23.0302C30.8981 23.7836 30.9415 24.5357 30.8702 25.2625L27.501 24.2922L27.4981 24.278C27.1964 24.1955 27.011 23.8886 27.0813 23.5808C27.11 23.4547 27.177 23.348 27.2677 23.2692L27.2662 23.2621L29.8671 20.9344ZM23.4631 23.4527H24.5345L25.2003 24.2851L24.9613 25.3237L23.9995 25.7861L23.0349 25.3223L22.7958 24.2836L23.4631 23.4527ZM26.8977 26.3012C26.9433 26.2989 26.9886 26.303 27.0329 26.3111L27.0386 26.304L30.5059 26.8902C29.9985 28.3159 29.0275 29.5509 27.7301 30.3774L26.3841 27.1264L26.3884 27.1207C26.2647 26.8334 26.3885 26.4965 26.6729 26.3595C26.7458 26.3244 26.8219 26.305 26.8977 26.3012ZM21.0743 26.3154C21.3389 26.3191 21.5762 26.5027 21.6377 26.7721C21.6665 26.8982 21.6525 27.0231 21.605 27.1335L21.6149 27.1463L20.2832 30.3646C19.0381 29.5657 18.0464 28.3694 17.5159 26.9016L20.9533 26.3182L20.959 26.3253C20.9975 26.3183 21.0365 26.3149 21.0743 26.3154ZM23.9782 27.7254C24.0703 27.722 24.1639 27.7409 24.2528 27.7837C24.3693 27.8398 24.4593 27.9282 24.516 28.0341H24.5288L26.2233 31.096C26.0034 31.1697 25.7773 31.2327 25.5461 31.2852C24.2501 31.5794 22.9583 31.4903 21.7885 31.0917L23.4788 28.0355H23.4816C23.583 27.8459 23.7754 27.7328 23.9782 27.7254Z"/></g></g></svg>

<svg xmlns="http://www.w3.org/2000/svg" fill="none" aria-hidden="true" viewBox="0 0 48 48"><path fill="#326CE5" d="M23.89 8.478a2.132 2.132 0 0 0-.816.206L11.949 14a2.125 2.125 0 0 0-1.151 1.431l-2.745 11.94a2.093 2.093 0 0 0 .41 1.786l7.7 9.574a2.126 2.126 0 0 0 1.664.794l12.348-.003a2.14 2.14 0 0 0 1.663-.793l7.697-9.575a2.103 2.103 0 0 0 .412-1.786l-2.75-11.94a2.102 2.102 0 0 0-1.15-1.431L24.92 8.684a2.142 2.142 0 0 0-1.032-.206Z"/><path fill="#fff" d="M24 12.541c-.368 0-.666.332-.666.74l.001.019c0 .055-.003.122-.001.17.008.236.06.416.09.634.057.464.104.85.075 1.208-.028.135-.128.258-.217.344l-.015.282a8.566 8.566 0 0 0-5.555 2.67c-.073-.05-.202-.142-.24-.17-.12.015-.24.052-.396-.039-.298-.2-.57-.477-.898-.811-.15-.16-.259-.312-.438-.465-.04-.035-.102-.082-.148-.118a.791.791 0 0 0-.464-.175.642.642 0 0 0-.53.234c-.23.288-.156.727.163.982l.01.007c.044.036.098.081.138.111.19.14.363.212.552.323.399.246.729.45.99.696.103.109.12.301.134.384l.214.19a8.616 8.616 0 0 0-1.359 6.008l-.279.08c-.073.096-.177.245-.286.29-.342.108-.728.147-1.194.196-.218.018-.407.007-.638.051-.051.01-.122.028-.178.041l-.006.002-.01.003c-.392.095-.645.455-.563.81.08.356.464.573.86.487l.009-.001.013-.004c.055-.012.124-.026.172-.039.228-.06.393-.15.598-.229.44-.158.805-.29 1.16-.341.149-.012.305.091.383.135l.29-.05a8.666 8.666 0 0 0 3.84 4.795l-.12.29c.043.113.091.265.059.377-.13.335-.35.688-.603 1.083-.122.182-.247.324-.357.532-.026.05-.06.127-.085.18-.171.365-.046.787.283.945.33.16.741-.008.919-.375l.001-.002v-.001c.026-.052.062-.12.083-.17.094-.215.126-.4.192-.61.176-.442.273-.907.515-1.196.067-.08.175-.11.287-.14l.151-.273a8.604 8.604 0 0 0 6.145.016c.043.075.121.22.143.256.114.037.238.056.34.206.181.31.305.677.456 1.12.067.209.1.394.194.61.021.05.057.119.082.171.178.368.59.537.92.377.33-.158.455-.58.284-.946-.025-.053-.06-.13-.087-.18-.11-.208-.235-.348-.357-.53-.252-.394-.461-.722-.59-1.057-.054-.173.009-.28.05-.393-.024-.029-.078-.192-.11-.269a8.665 8.665 0 0 0 3.839-4.829c.086.014.236.04.284.05.1-.066.192-.152.373-.138.355.052.72.184 1.16.341.206.079.37.17.599.231.048.013.117.025.172.037l.012.004.01.002c.395.085.779-.131.86-.487.08-.355-.171-.716-.564-.81-.057-.014-.138-.036-.193-.046-.232-.044-.42-.033-.639-.052-.466-.048-.851-.088-1.194-.196-.14-.054-.239-.22-.287-.289l-.269-.078a8.599 8.599 0 0 0-.14-3.109 8.617 8.617 0 0 0-1.247-2.884l.236-.212c.01-.12.001-.245.125-.377.262-.246.592-.45.99-.696.19-.11.364-.183.554-.323.043-.031.101-.081.146-.118.32-.255.393-.694.164-.981-.23-.288-.674-.315-.993-.06-.046.036-.107.083-.148.118-.179.154-.29.306-.44.465-.328.334-.6.612-.897.813-.13.075-.319.049-.405.044l-.253.18a8.727 8.727 0 0 0-5.527-2.67 15.73 15.73 0 0 1-.016-.297c-.087-.083-.191-.154-.218-.333-.029-.358.02-.744.076-1.208.03-.217.082-.398.09-.633.003-.054 0-.132 0-.19 0-.408-.299-.74-.666-.74Zm-.834 5.165-.198 3.493-.014.007a.587.587 0 0 1-.932.45l-.006.003-2.864-2.03a6.858 6.858 0 0 1 4.014-1.923Zm1.669 0a6.917 6.917 0 0 1 3.99 1.924l-2.846 2.017-.01-.004a.588.588 0 0 1-.934-.448l-.003-.002-.197-3.487Zm-6.722 3.227 2.616 2.339-.003.014a.586.586 0 0 1-.23 1.009l-.004.011-3.352.968a6.857 6.857 0 0 1 .973-4.341Zm11.754.001c.389.63.683 1.334.858 2.096.173.754.216 1.506.145 2.232l-3.369-.97-.003-.014a.587.587 0 0 1-.23-1.009l-.002-.007 2.601-2.328Zm-6.404 2.519h1.072l.665.832-.239 1.039-.961.462-.965-.464-.24-1.038.668-.831Zm3.435 2.848a.587.587 0 0 1 .135.01l.006-.007 3.467.586a6.866 6.866 0 0 1-2.776 3.487l-1.346-3.25.004-.006a.588.588 0 0 1 .51-.82Zm-5.824.014a.587.587 0 0 1 .531.819l.01.012-1.332 3.219a6.894 6.894 0 0 1-2.767-3.463l3.437-.584.006.007a.604.604 0 0 1 .115-.01Zm2.904 1.41a.583.583 0 0 1 .538.309h.013l1.694 3.062a7.03 7.03 0 0 1-.677.19 6.886 6.886 0 0 1-3.758-.194l1.69-3.056h.004a.588.588 0 0 1 .496-.31Z"/></svg>
